X:161
T:Humours of Wapping. JJo.161
B:J.Johnson Choice Collection Vol 8 1758
Z:vmp.Simon Wilson 2013 www.village-music-project.org.uk
Z:Dance added by John Chambers 2017
M:C|
L:1/8
%Q:1/2=100
K:Bb
FE |\
DEFD B2AG | ABcd e2dc | dfdB cdec | d2 B4 FE |\
DEFD B2AG | ABcd F2ED | gabg fedc | d2 B4 :|
|: de |\
fdfd b2ag | fdfd B2cd | ecgf edcB | A2 F4 FE |\
DFBF GBeB | ABcd e2g2 | fdbg fedc | d2 B4 :|
%%begintext align
%% First and 2d Cu. right hands across half
%% round. Left back again .| Cross over, and
%% half figure :| hands 6 round and Right
%% and Left at top :|:
%%endtext
